static/language.svg

<svg width="27" height="27" viewBox="0 0 27 27" fill="none" xmlns="http://www.w3.org/2000/svg">
<path d="M18.3212 8.27419C17.5318 3.4131 15.6697 0 13.5027 0C11.3358 0 9.47368 3.4131 8.68421 8.27419H18.3212ZM8.27586 13.5C8.27586 14.7085 8.3412 15.8679 8.45553 16.9839H18.5445C18.6588 15.8679 18.7241 14.7085 18.7241 13.5C18.7241 12.2915 18.6588 11.1321 18.5445 10.0161H8.45553C8.3412 11.1321 8.27586 12.2915 8.27586 13.5ZM25.9546 8.27419C24.3975 4.57802 21.245 1.72016 17.3521 0.566129C18.6806 2.40605 19.5953 5.17681 20.0744 8.27419H25.9546ZM9.64791 0.566129C5.76044 1.72016 2.60254 4.57802 1.05082 8.27419H6.93104C7.40472 5.17681 8.31942 2.40605 9.64791 0.566129ZM26.5372 10.0161H20.2922C20.4065 11.1593 20.4719 12.3296 20.4719 13.5C20.4719 14.6704 20.4065 15.8407 20.2922 16.9839H26.5318C26.8312 15.8679 27 14.7085 27 13.5C27 12.2915 26.8312 11.1321 26.5372 10.0161ZM6.53358 13.5C6.53358 12.3296 6.59891 11.1593 6.71325 10.0161H0.46824C0.174229 11.1321 0 12.2915 0 13.5C0 14.7085 0.174229 15.8679 0.46824 16.9839H6.7078C6.59891 15.8407 6.53358 14.6704 6.53358 13.5ZM8.68421 18.7258C9.47368 23.5869 11.3358 27 13.5027 27C15.6697 27 17.5318 23.5869 18.3212 18.7258H8.68421ZM17.3575 26.4339C21.245 25.2798 24.4029 22.422 25.9601 18.7258H20.0799C19.6007 21.8232 18.686 24.594 17.3575 26.4339ZM1.05082 18.7258C2.60799 22.422 5.76044 25.2798 9.65336 26.4339C8.32486 24.594 7.41016 21.8232 6.93104 18.7258H1.05082Z" fill="#1D4283"/>
</svg>

<svg width="27" height="27" fill="none" xmlns="http://www.w3.org/2000/svg"><path d="M18.321 8.274C17.531 3.414 15.67 0 13.503 0s-4.03 3.413-4.819 8.274h9.637zM8.276 13.5c0 1.209.065 2.368.18 3.484h10.088c.115-1.116.18-2.276.18-3.484 0-1.209-.065-2.368-.18-3.484H8.457a34.116 34.116 0 0 0-.18 3.484zm17.679-5.226A13.53 13.53 0 0 0 17.352.566c1.329 1.84 2.243 4.61 2.722 7.708h5.88zM9.648.566A13.521 13.521 0 0 0 1.05 8.274h5.88C7.405 5.177 8.319 2.406 9.648.566zm16.89 9.45h-6.246c.114 1.143.18 2.314.18 3.484s-.066 2.34-.18 3.484h6.24c.3-1.116.468-2.276.468-3.484 0-1.209-.169-2.368-.463-3.484zM6.533 13.5c0-1.17.065-2.34.18-3.484H.467A13.617 13.617 0 0 0 0 13.5c0 1.209.174 2.368.468 3.484h6.24a36.855 36.855 0 0 1-.174-3.484zm2.15 5.226c.79 4.86 2.652 8.274 4.819 8.274s4.029-3.413 4.818-8.274H8.684zm8.674 7.708a13.543 13.543 0 0 0 8.602-7.708h-5.88c-.48 3.097-1.394 5.868-2.722 7.708zM1.05 18.726a13.53 13.53 0 0 0 8.602 7.708c-1.328-1.84-2.243-4.61-2.722-7.708h-5.88z" fill="#1D4283"/></svg>
